X: 14652
T: Gan Ainm
R: polka
M: 2/4
K: Dmajor
f|{^g}a2 (ab|a2) (af|g2) f2|(edc) e|{^g}a2 (ab|a2) (fa|g2) f2|e4|
{^g}a2 a (b|a2) af|g2 f2|(edc) e|{^g}a2 (ab|a2) (fa|g2) f2|e4|
(ec) e (g|f2) f2|(fd) f (g|e2) e2|(ec) e (g|f2) f2|(fd) f (g|e2) e2|
(ec) e (g|fd) f (g|ec) ef|d3 F|A2 (Ad|A2) (FA|G2) F2|(ED^C) E|
A2 (Ad|A2) (FA|G2) F2|E4|{^G}A2 A (d|A2) A (F|G2) F2|(ED^C) E|
{^G}A2 (Ad|A2) (FA|G2) F2|E4|(E^C) E (G|F2) F2|(FD) F (G|E2) E2|
(E^C) E (G|F2) F2|(FD) F (G|E2) E2|(E^C) E (G|FD) F (G|E^C) EF|d4|
(B^G) B (d|cA) c (d|B^G) BC|A4|(E^C) E (G|FD) F (G|E^C) EF|D4||

